Simply-Purple-Circles/scalable/actions/im-identi.ca.svg

<?xml version="1.0" encoding="UTF-8" standalone="no"?>
<svg
   xmlns:dc="http://purl.org/dc/elements/1.1/"
   xmlns:cc="http://creativecommons.org/ns#"
   xmlns:rdf="http://www.w3.org/1999/02/22-rdf-syntax-ns#"
   xmlns:svg="http://www.w3.org/2000/svg"
   xmlns="http://www.w3.org/2000/svg"
   xmlns:sodipodi="http://sodipodi.sourceforge.net/DTD/sodipodi-0.dtd"
   xmlns:inkscape="http://www.inkscape.org/namespaces/inkscape"
   width="24"
   height="24"
   version="1.1"
   id="svg7"
   sodipodi:docname="im-identi.ca.svg"
   inkscape:version="0.92.4 (5da689c313, 2019-01-14)">
  <metadata
     id="metadata11">
    <rdf:RDF>
      <cc:Work
         rdf:about="">
        <dc:format>image/svg+xml</dc:format>
        <dc:type
           rdf:resource="http://purl.org/dc/dcmitype/StillImage" />
        <dc:title></dc:title>
      </cc:Work>
    </rdf:RDF>
  </metadata>
  <sodipodi:namedview
     pagecolor="#ffffff"
     bordercolor="#666666"
     borderopacity="1"
     objecttolerance="10"
     gridtolerance="10"
     guidetolerance="10"
     inkscape:pageopacity="0"
     inkscape:pageshadow="2"
     inkscape:window-width="1078"
     inkscape:window-height="480"
     id="namedview9"
     showgrid="false"
     inkscape:zoom="9.8333333"
     inkscape:cx="-0.81355932"
     inkscape:cy="12"
     inkscape:window-x="0"
     inkscape:window-y="28"
     inkscape:window-maximized="0"
     inkscape:current-layer="svg7" />
  <defs
     id="defs3">
    <style
       id="current-color-scheme"
       type="text/css">
   .ColorScheme-Text { color:#963996; } .ColorScheme-Highlight { color:#4285f4; }
  </style>
  </defs>
  <path
     d="M 11,4 C 7.676,4 5,6.7 5,10 v 4 l -1,4 4,-2 h 3 c 0.819,0 1.597,-0.2 2.307,-0.5 C 13.178,15.2 13.102,14.9 13.055,14.6 12.427,14.8 11.735,15 11,15 H 5.9999 V 10 C 5.9999,7.2 8.23,5 11,5 c 2.77,0 5,2.2 5,5 0,0 -0.007,0.1 -0.008,0.1 C 16.315,10.1 16.65,10 17,10 17,6.7 14.324,4 11,4 Z m 6,7 c -1.662,0 -3,1.3 -3,3 0,1 0.471,1.8 1.191,2.4 L 17,20 18.809,16.4 C 19.529,15.8 20,14.9 20,14 20,12.3 18.662,11 17,11 Z"
     style="color:#963996;fill:currentColor"
     class="ColorScheme-Text"
     id="path5"
     inkscape:connector-curvature="0" />
</svg>

<svg xmlns="http://www.w3.org/2000/svg" width="24" height="24" version="1.1">
 <defs>
  <style id="current-color-scheme" type="text/css">
   .ColorScheme-Text { color:#963996; } .ColorScheme-Highlight { color:#4285f4; }
  </style>
 </defs>
 <path d="M 11,4 C 7.676,4 5,6.7 5,10 V 14 L 4,18 8,16 H 11 C 11.819,16 12.597,15.8 13.307,15.5 13.178,15.2 13.102,14.9 13.055,14.6 12.427,14.8 11.735,15 11,15 H 5.9999 V 10 C 5.9999,7.2 8.23,5 11,5 13.77,5 16,7.2 16,10 16,10 15.993,10.1 15.992,10.1 16.315,10.1 16.65,10 17,10 17,6.7 14.324,4 11,4 Z M 17,11 C 15.338,11 14,12.3 14,14 14,15 14.471,15.8 15.191,16.4 L 17,20 18.809,16.4 C 19.529,15.8 20,14.9 20,14 20,12.3 18.662,11 17,11 Z" style="fill:currentColor" class="ColorScheme-Text"/>
</svg>
